X: 12638
T: Farm Hill Lasses
R: reel
M: 4/4
K: Cmajor
|:F2((3AGF) cF ((3AGF)|cF ((3AGF) dcAc|F2 ((3AGF) cFAc|((3def) cA BAGA:|
f2af gfdf|cFAc dcAc|f2af gfdf|cFAF GABG|f2af gfdf|cFAc dcA>f|afge fedf
cFAF GBAG||

